pix_core/i/externallink.svg

<svg preserveAspectRatio="xMinYMid meet" viewBox="0 0 512 512" xmlns="http://www.w3.org/2000/svg"><path d="m320 0c-17.7 0-32 14.3-32 32s14.3 32 32 32h82.7l-201.3 201.4c-12.5 12.5-12.5 32.8 0 45.3s32.8 12.5 45.3 0l201.3-201.4v82.7c0 17.7 14.3 32 32 32s32-14.3 32-32v-160c0-17.7-14.3-32-32-32zm-240 32c-44.2 0-80 35.8-80 80v320c0 44.2 35.8 80 80 80h320c44.2 0 80-35.8 80-80v-112c0-17.7-14.3-32-32-32s-32 14.3-32 32v112c0 8.8-7.2 16-16 16h-320c-8.8 0-16-7.2-16-16v-320c0-8.8 7.2-16 16-16h112c17.7 0 32-14.3 32-32s-14.3-32-32-32z" fill="#fff"/></svg>

<svg xmlns="http://www.w3.org/2000/svg" viewBox="0 0 512 512" preserveAspectRatio="xMinYMid meet"><!--!Font Awesome Free 6.5.2 by @fontawesome - https://fontawesome.com License - https://fontawesome.com/license/free Copyright 2024 Fonticons, Inc.--><path fill="#fff" d="M320 0c-17.7 0-32 14.3-32 32s14.3 32 32 32h82.7L201.4 265.4c-12.5 12.5-12.5 32.8 0 45.3s32.8 12.5 45.3 0L448 109.3V192c0 17.7 14.3 32 32 32s32-14.3 32-32V32c0-17.7-14.3-32-32-32H320zM80 32C35.8 32 0 67.8 0 112V432c0 44.2 35.8 80 80 80H400c44.2 0 80-35.8 80-80V320c0-17.7-14.3-32-32-32s-32 14.3-32 32V432c0 8.8-7.2 16-16 16H80c-8.8 0-16-7.2-16-16V112c0-8.8 7.2-16 16-16H192c17.7 0 32-14.3 32-32s-14.3-32-32-32H80z"/></svg>
